src/view/frontend/web/svg/heroicons/solid/selector.svg

<svg viewBox="0 0 20 20" fill="currentColor" xmlns="http://www.w3.org/2000/svg">

<path fill-rule="evenodd" clip-rule="evenodd" d="M10 3C10.2652 3 10.5196 3.10536 10.7071 3.29289L13.7071 6.29289C14.0976 6.68342 14.0976 7.31658 13.7071 7.70711C13.3166 8.09763 12.6834 8.09763 12.2929 7.70711L10 5.41421L7.70711 7.70711C7.31658 8.09763 6.68342 8.09763 6.29289 7.70711C5.90237 7.31658 5.90237 6.68342 6.29289 6.29289L9.29289 3.29289C9.48043 3.10536 9.73478 3 10 3ZM6.29289 12.2929C6.68342 11.9024 7.31658 11.9024 7.70711 12.2929L10 14.5858L12.2929 12.2929C12.6834 11.9024 13.3166 11.9024 13.7071 12.2929C14.0976 12.6834 14.0976 13.3166 13.7071 13.7071L10.7071 16.7071C10.3166 17.0976 9.68342 17.0976 9.29289 16.7071L6.29289 13.7071C5.90237 13.3166 5.90237 12.6834 6.29289 12.2929Z" />
</svg>

<svg xmlns="http://www.w3.org/2000/svg" fill="currentColor" viewBox="0 0 20 20"><path fill-rule="evenodd" d="M10 3a1 1 0 0 1 .707.293l3 3a1 1 0 0 1-1.414 1.414L10 5.414 7.707 7.707a1 1 0 0 1-1.414-1.414l3-3A1 1 0 0 1 10 3Zm-3.707 9.293a1 1 0 0 1 1.414 0L10 14.586l2.293-2.293a1 1 0 0 1 1.414 1.414l-3 3a1 1 0 0 1-1.414 0l-3-3a1 1 0 0 1 0-1.414Z" clip-rule="evenodd"/></svg>
